Papirus/24x24/apps/pulsar.svg

<svg id="svg23" width="24" height="24" version="1.1" xmlns="http://www.w3.org/2000/svg">
 <circle id="circle2" cx="12" cy="12.5" r="10" style="opacity:.2"/>
 <circle id="circle4" cx="12" cy="12" r="10" style="fill:#6a1b9a"/>
 <path id="path6" d="M 12,2 A 10,10 0 0 0 2,12 10,10 0 0 0 2.0175781,12.25 10,10 0 0 1 12,2.5 10,10 0 0 1 21.990234,12.125 10,10 0 0 0 22,12 10,10 0 0 0 12,2 Z" style="fill:#ffffff;opacity:.2"/>
 <path id="path8" d="m19.214844 5.0800781-4.439453 3.7207031-0.404297 1.0410157c-0.0611-0.022958-0.130484-0.0390625-0.199219-0.0390625-0.129833 0-0.258138 0.0528691-0.357422 0.1523437-0.198568 0.1989499-0.198568 0.5295729 0 0.7285159 0.09928 0.09947 0.227764 0.152344 0.365235 0.152344 0.129831 0 0.260266-0.052874 0.367187-0.152344 0.152745-0.153035 0.191606-0.374948 0.115234-0.558594l1.039063-0.40625 3.71289-4.4277344a10 10 0 0 0-0.199218-0.2109375zm-10.111328 0.4199219c-1.1716569 0.006618-2.2163612 0.3732727-2.9726562 1.1269531-1.0325304 1.031905-1.3690688 2.619124-0.9589844 4.4707029 0.1072405 0.472027 0.2582022 0.948415 0.453125 1.419922-0.8158529 2.138816-0.8558827 4.127963 0.015625 5.232422l0.4238281-0.503906c-0.5749317-1.043323-0.5754831-2.460436-0.0761719-3.953125 0.3985514 0.772208 0.9066597 1.525687 1.5117188 2.232422l0.4023438-0.482422c-0.6723967-0.805469-1.2172333-1.665334-1.6074219-2.53711 0.5119864-1.149678 1.305493-2.31395 2.3535156-3.3613278 1.0261296-1.0255049 2.1817365-1.82959 3.3574215-2.3496093 0.85656 0.3839085 1.720935 0.9234674 2.539063 1.609375l0.482422-0.4023438c-0.719288-0.6125444-1.476178-1.1155794-2.240235-1.5078125 0.252029-0.0835132 0.503112-0.1553384 0.753907-0.2109375 1.259543-0.2854111 2.372706-0.1837237 3.214843 0.2773438l0.50586-0.4238281c-0.689729-0.4377511-1.53833-0.6540726-2.494141-0.6347657-0.434458 0.00877-0.891531 0.0663266-1.365234 0.1738281-0.46981 0.1049814-0.942427 0.2561648-1.41211 0.4492188-0.98698-0.4174407-1.97543-0.6301473-2.8867184-0.625zm-0.0273437 0.6132812c0.6701314-0.0070262 1.3948731 0.1203787 2.1386721 0.3710938-1.059719 0.5447563-2.0843216 1.297308-3.0039065 2.2207031-0.9414243 0.9408615-1.6886334 1.9760999-2.2226563 3.0214839-0.0865895-0.256069-0.1588165-0.512876-0.2167968-0.767578-0.3661466-1.6320077-0.0877352-3.0143569 0.7910156-3.8925778 0.634348-0.6339592 1.5124633-0.9426926 2.5136719-0.953125zm9.2910161 1.1289063-0.425782 0.5039063c0.351501 0.6440326 0.490707 1.4499272 0.410156 2.3574222 0.183073 0.292734 0.351589 0.578359 0.498047 0.871093 0.307563-1.4636905 0.140028-2.759056-0.482421-3.7324215zm-6.382813 1.2578125c-2.2003729 0-3.984375 1.79849-3.984375 4.015625 0 0.77715 0.2198358 1.492233 0.6054688 2.109375l0.21875-0.083984c0.0378069-0.228575 0.1361315-0.433758 0.2949218-0.59375 0.030246-0.03049 0.0676611-0.061135 0.1054688-0.083985-0.1965953-0.411418-0.3164063-0.867846-0.3164063-1.355469 0-1.714284 1.3826649-3.1093745 3.0839849-3.1093745 0.48393 0 0.937387 0.1145959 1.345703 0.3203125 0.03025-0.038102 0.053734-0.0749885 0.083984-0.1054688 0.15879-0.1600077 0.354937-0.2605278 0.574219-0.2910156l0.083984-0.2207031c-0.612474-0.3809605-1.32444-0.6015625-2.095703-0.6015625zm4.515625 0.9667969-0.402344 0.4824219c0.686668 0.8180542 1.227166 1.6819052 1.611328 2.5390622l-0.015625 0.03711c-0.52725 1.170948-1.332697 2.326942-2.335937 3.322265-1.471909 1.471023-3.208306 2.488075-4.892578 2.861328-1.2595444 0.285419-2.3727068 0.183221-3.214844-0.285156l-0.5039062 0.423828c0.6663868 0.431794 1.5470346 0.652344 2.4550781 0.652344 0.4686665 0 0.8916911-0.066502 1.4042971-0.183594 1.80144-0.402497 3.646268-1.477777 5.191406-3.029297 0.913253-0.912688 1.673943-1.944256 2.222656-3.009765 0.625875 1.855626 0.47699 3.594643-0.582031 4.648437-0.798199 0.797716-2.052014 1.09943-3.501953 0.865235-0.270948 0.168324-0.547901 0.321886-0.826172 0.460937 0.615125 0.161009 1.201269 0.248047 1.757813 0.248047 1.215603 0 2.262826-0.38049 3.009765-1.126953 1.933259-1.939423 1.281267-5.781254-1.376953-8.9062501zm-1.097656 0.9082031-0.21875 0.083984c-0.04537 0.228567-0.143946 0.433744-0.302735 0.59375-0.03025 0.03048-0.067659 0.061125-0.105468 0.083985 0.196597 0.411417 0.316406 0.867839 0.316406 1.355469 0 1.714277-1.382666 3.109374-3.083985 3.109374-0.483931 0-0.937387-0.114595-1.345703-0.320312-0.03025 0.0381-0.053744 0.074979-0.083984 0.105469-0.158792 0.159993-0.354939 0.260542-0.574219 0.291015l-0.0839841 0.220704c0.6124751 0.380929 1.3244361 0.601562 2.0957031 0.601562 2.200368-6e-6 3.984375-1.798475 3.984375-4.015625 0-0.777127-0.219585-1.492226-0.597656-2.109375zm-3.402344 0.125a2 2 0 0 0-2 2 2 2 0 0 0 2 2 2 2 0 0 0 2-2 2 2 0 0 0-2-2zm-2.1796875 3.664062c-0.129833 0-0.2602662 0.052874-0.3671875 0.152344-0.1527439 0.153035-0.191606 0.374949-0.1152344 0.558594l-1.0390625 0.40625-3.2480469 3.875a10 10 0 0 0 0.2910157 0.291016l3.8671875-3.25586 0.4042968-1.041015c0.061097 0.02295 0.1304837 0.039062 0.1992188 0.039062 0.129833 0 0.258138-0.052866 0.357422-0.152344 0.198568-0.198949 0.198568-0.527619 0-0.726562-0.09165-0.09947-0.2197765-0.146485-0.3496095-0.146485zm-0.3652344 2.416016-0.484375 0.402344c0.4247296 0.365923 0.8726407 0.696027 1.3339849 0.996094 0.175751-0.058555 0.541532-0.205637 0.695312-0.300782-0.571187-0.329324-1.0176709-0.658545-1.5449219-1.097656z" style="opacity:.2"/>
 <path id="circle13" class="st1" transform="matrix(.07637242 0 0 .07637242 79.56282 123.76721)" d="m-781.10157-1568.1998-67.20767 56.3133-5.29375 13.6308c-0.8-0.3006-1.70852-0.5115-2.60852-0.5115-1.7 0-3.37999 0.6923-4.67999 1.9948-2.59999 2.605-2.59999 6.9341 0 9.539 1.3 1.3025 2.98229 1.9947 4.78229 1.9947 1.69999 0 3.40785-0.6922 4.80785-1.9947 2-2.0038 2.50885-4.9095 1.50885-7.3141l13.6052-5.3193 56.28771-67.131-1.20197-1.202zm-67.30996 13.1194c-5.6887 0.1148-11.67347 0.8684-17.87602 2.276-6.15157 1.3746-12.33988 3.3542-18.48978 5.882-29.5389-12.4934-59.11622-10.9716-76.72108 6.5724-13.51969 13.5115-17.92623 34.2941-12.55669 58.5382 1.40418 6.1806 3.38083 12.4183 5.9331 18.5921-10.68257 28.0051-11.20671 54.0504 0.20459 68.5119l5.54949-6.598c-7.52801-13.661-7.53523-32.2163-0.99737-51.7612 5.21853 10.1111 11.87155 19.977 19.79404 29.2308l5.26818-6.3167c-8.80419-10.5466-15.93812-21.8055-21.04715-33.2203 6.70382-15.0536 17.09376-30.2982 30.8163-44.0123 13.43588-13.4277 28.56705-23.9562 43.96118-30.7652 11.21557 5.0268 22.53344 12.0917 33.24581 21.0728l6.3167-5.2682c-9.41816-8.0205-19.32868-14.6071-29.33303-19.7429 3.3-1.0935 6.58761-2.034 9.87145-2.762 16.49215-3.7371 31.06757-2.4056 42.0943 3.6315l6.62359-5.5495c-9.03113-5.7318-20.14247-8.5642-32.65761-8.3114zm-74.52175 8.0045c8.77453-0.092 18.26409 1.5762 28.0032 4.859-13.87569 7.1329-27.29154 16.9866-39.33235 29.0773-12.32677 12.3194-22.1105 25.8745-29.10286 39.5625-1.13378-3.3529-2.0795-6.7154-2.83868-10.0504-4.79423-21.3691-1.1488-39.4692 10.35734-50.9684 8.30599-8.3009 19.80378-12.3434 32.91335-12.48zm121.65407 14.7816-5.57507 6.598c4.60246 8.4328 6.4252 18.985 5.37048 30.8675 2.39711 3.833 4.60359 7.5728 6.52129 11.4058 4.02715-19.1652 1.8335-36.1263-6.3167-48.8713zm-83.57484 16.4695c-28.81112 0-52.17034 23.5489-52.17034 52.5795 0 10.1758 2.87847 19.5389 7.92785 27.6196l2.86425-1.0997c0.49504-2.9929 1.78247-5.6795 3.86163-7.7744 0.39603-0.3992 0.88594-0.8005 1.38098-1.0997-2.57417-5.3871-4.14294-11.3633-4.14294-17.7481 0-22.4464 18.10423-40.7133 40.38087-40.7133 6.33646 0 12.27389 1.5005 17.62027 4.1941 0.39604-0.4989 0.70364-0.9819 1.09967-1.381 2.07916-2.0951 4.64745-3.4113 7.51867-3.8105l1.09967-2.8898c-8.01958-4.9882-17.34185-7.8767-27.44058-7.8767zm59.12639 12.659-5.26819 6.3167c8.99105 10.7114 16.06817 22.0224 21.0983 33.2458l-0.20459 0.4859c-6.90369 15.3321-17.44996 30.4683-30.58614 43.5008-19.27279 19.2612-42.00867 32.5782-64.0621 37.4655-16.49215 3.7372-31.06758 2.399-42.09431-3.7338l-6.59801 5.5495c8.7255 5.6538 20.25645 8.5416 32.14614 8.5416 6.1366 0 11.67556-0.8707 18.38748-2.4039 23.58761-5.2702 47.74324-19.3496 67.97489-39.6648 11.9579-11.9505 21.91814-25.4576 29.10286-39.4091 8.19504 24.2971 6.24559 47.0673-7.62096 60.8654-10.45142 10.4451-26.8685 14.3957-45.85364 11.3292-3.54771 2.204-7.17407 4.2147-10.81767 6.0354 8.0543 2.1082 15.72909 3.2478 23.01633 3.2478 15.91681 0 29.62883-4.982 39.40906-14.756 25.31353-25.3943 16.77661-75.6981-18.02945-116.616zm-14.37242 11.8917-2.86426 1.0997c-0.59403 2.9928-1.88478 5.6793-3.96392 7.7744-0.39603 0.3991-0.88594 0.8004-1.38098 1.0997 2.5742 5.387 4.14294 11.3632 4.14294 17.7481 0 22.4463-18.10423 40.7133-40.38086 40.7133-6.33647 0-12.2739-1.5005-17.62028-4.1941-0.39604 0.4989-0.70365 0.9818-1.09967 1.381-2.07918 2.0949-4.64747 3.4115-7.51867 3.8105l-1.09966 2.8898c8.0196 4.9878 17.3418 7.8767 27.44057 7.8767 28.81111 0 52.17034-23.5487 52.17034-52.5795 0-10.1755-2.87518-19.5388-7.82555-27.6196zm-44.54938 1.6367a26.187464 26.187464 0 0 0-26.18746 26.1875 26.187464 26.187464 0 0 0 26.18746 26.1875 26.187464 26.187464 0 0 0 26.18747-26.1875 26.187464 26.187464 0 0 0-26.18747-26.1875zm-28.54024 47.9763c-1.7 0-3.40786 0.6922-4.80786 1.9947-1.99999 2.0038-2.50884 4.9095-1.50885 7.3141l-13.6052 5.3193-56.2877 67.131 1.20196 1.202 67.00308-56.4156 5.29376-13.6308c0.79999 0.3005 1.70851 0.5115 2.60851 0.5115 1.7 0 3.37999-0.6923 4.67999-1.9948 2.6-2.605 2.6-6.9085 0-9.5134-1.2-1.3025-2.87769-1.918-4.57769-1.918zm-4.78228 31.6347-6.34228 5.2681c5.5613 4.7913 11.42611 9.1136 17.46683 13.0426 2.30125-0.7667 7.09068-2.6925 9.10424-3.9383-7.47898-4.3121-13.3251-8.6228-20.22879-14.3724z" style="fill:#ffffff"/>
</svg>

<svg xmlns="http://www.w3.org/2000/svg" width="24" height="24" version="1.1">
 <circle style="opacity:0.2" cx="12" cy="12.5" r="10"/>
 <circle style="fill:#6a1b9a" cx="12" cy="12" r="10"/>
 <path style="opacity:0.1;fill:#ffffff" d="M 12,2 A 10,10 0 0 0 2,12 10,10 0 0 0 2.0176,12.25 10,10 0 0 1 12,2.5 10,10 0 0 1 21.99,12.125 10,10 0 0 0 22,12 10,10 0 0 0 12,2 Z"/>
 <path style="opacity:0.2" d="M 19.215,5.0801 14.775,8.8008 14.371,9.8418 C 14.31,9.8188 14.241,9.8027 14.172,9.8027 14.042,9.8027 13.914,9.8556 13.814,9.9551 13.616,10.154 13.616,10.485 13.814,10.684 13.914,10.783 14.042,10.836 14.18,10.836 14.31,10.836 14.44,10.783 14.547,10.684 14.7,10.531 14.738,10.309 14.662,10.125 L 15.701,9.7187 19.414,5.291 A 10,10 0 0 0 19.215,5.0801 Z M 9.1035,5.5 C 7.9319,5.5066 6.8872,5.8733 6.1309,6.627 5.0983,7.6589 4.7618,9.2461 5.1719,11.098 5.2791,11.57 5.4301,12.046 5.625,12.518 4.8091,14.656 4.7691,16.646 5.6406,17.75 L 6.0645,17.246 C 5.4895,16.203 5.489,14.786 5.9883,13.293 6.3868,14.065 6.8949,14.819 7.5,15.525 L 7.9023,15.043 C 7.2299,14.237 6.6851,13.378 6.2949,12.506 6.8069,11.356 7.6004,10.192 8.6484,9.1445 9.6746,8.119 10.83,7.3149 12.006,6.7949 12.862,7.1788 13.727,7.7184 14.545,8.4043 L 15.027,8.002 C 14.308,7.3894 13.551,6.8864 12.787,6.4941 13.039,6.4106 13.29,6.3388 13.541,6.2832 14.801,5.9978 15.914,6.0995 16.756,6.5605 L 17.262,6.1367 C 16.572,5.699 15.723,5.4826 14.768,5.502 14.333,5.5107 13.876,5.5683 13.402,5.6758 12.933,5.7808 12.46,5.9319 11.99,6.125 11.003,5.7076 10.015,5.4949 9.1035,5.5 Z M 9.0762,6.1133 C 9.7463,6.1063 10.471,6.2337 11.215,6.4844 10.155,7.0291 9.1305,7.7817 8.2109,8.7051 7.2695,9.6459 6.5223,10.681 5.9883,11.727 5.9017,11.47 5.8295,11.214 5.7715,10.959 5.4053,9.327 5.6837,7.9446 6.5625,7.0664 7.1968,6.4324 8.075,6.1237 9.0762,6.1133 Z M 18.367,7.2422 17.941,7.7461 C 18.293,8.3901 18.432,9.196 18.352,10.104 18.535,10.396 18.703,10.682 18.85,10.975 19.157,9.5109 18.99,8.2156 18.367,7.2422 Z M 11.984,8.5 C 9.784,8.5 8,10.298 8,12.516 8,13.293 8.2198,14.008 8.6055,14.625 L 8.8242,14.541 C 8.862,14.312 8.9604,14.107 9.1191,13.947 9.1494,13.917 9.1868,13.886 9.2246,13.863 9.028,13.452 8.9082,12.995 8.9082,12.508 8.9082,10.794 10.291,9.3984 11.992,9.3984 12.476,9.3984 12.93,9.513 13.338,9.7188 13.368,9.6806 13.392,9.6438 13.422,9.6133 13.581,9.4533 13.777,9.3528 13.996,9.3223 L 14.08,9.1016 C 13.468,8.7206 12.756,8.5 11.984,8.5 Z M 16.5,9.4668 16.098,9.9492 C 16.784,10.767 17.325,11.631 17.709,12.488 L 17.693,12.525 C 17.166,13.696 16.361,14.852 15.357,15.848 13.886,17.319 12.149,18.336 10.465,18.709 9.2053,18.994 8.0921,18.892 7.25,18.424 L 6.7461,18.848 C 7.4125,19.279 8.2931,19.5 9.2012,19.5 9.6698,19.5 10.093,19.433 10.605,19.316 12.407,18.914 14.252,17.839 15.797,16.287 16.71,15.374 17.471,14.343 18.02,13.277 18.645,15.133 18.497,16.872 17.438,17.926 16.639,18.723 15.385,19.025 13.936,18.791 13.665,18.959 13.388,19.113 13.109,19.252 13.725,19.413 14.311,19.5 14.867,19.5 16.083,19.5 17.13,19.12 17.877,18.373 19.81,16.434 19.158,12.592 16.5,9.4668 Z M 15.402,10.375 15.184,10.459 C 15.138,10.688 15.04,10.893 14.881,11.053 14.851,11.083 14.813,11.114 14.775,11.137 14.972,11.548 15.092,12.005 15.092,12.492 15.092,14.206 13.709,15.602 12.008,15.602 11.524,15.602 11.07,15.487 10.662,15.281 10.632,15.319 10.608,15.356 10.578,15.387 10.419,15.547 10.223,15.647 10.004,15.678 L 9.9199,15.898 C 10.532,16.279 11.244,16.5 12.016,16.5 14.216,16.5 16,14.702 16,12.484 16,11.707 15.78,10.992 15.402,10.375 Z M 12,10.5 A 2,2 0 0 0 10,12.5 2,2 0 0 0 12,14.5 2,2 0 0 0 14,12.5 2,2 0 0 0 12,10.5 Z M 9.8203,14.164 C 9.6905,14.164 9.56,14.217 9.4531,14.316 9.3004,14.469 9.2615,14.691 9.3379,14.875 L 8.2988,15.281 5.0508,19.156 A 10,10 0 0 0 5.3418,19.447 L 9.209,16.191 9.6133,15.15 C 9.6744,15.173 9.7438,15.189 9.8125,15.189 9.9423,15.189 10.071,15.137 10.17,15.037 10.368,14.838 10.368,14.509 10.17,14.311 10.078,14.211 9.9501,14.164 9.8203,14.164 Z M 9.4551,16.58 8.9707,16.982 C 9.3954,17.348 9.8433,17.678 10.305,17.979 10.48,17.92 10.846,17.773 11,17.678 10.429,17.348 9.9823,17.019 9.4551,16.58 Z"/>
 <path style="fill:#ffffff" d="M 19.91,4.0066 14.778,8.3062 14.374,9.3448 C 14.312,9.3219 14.243,9.3066 14.174,9.3066 14.044,9.3066 13.916,9.3601 13.817,9.4594 13.618,9.6579 13.618,9.994 13.817,10.193 13.916,10.292 14.044,10.345 14.182,10.345 14.312,10.345 14.442,10.292 14.549,10.193 14.702,10.04 14.741,9.8183 14.665,9.635 L 15.703,9.2226 20.002,4.0982 Z M 14.77,5.007 C 14.335,5.0147 13.878,5.0757 13.404,5.1827 12.935,5.2896 12.462,5.4347 11.992,5.6332 9.7364,4.6786 7.4781,4.7932 6.1332,6.1373 5.1007,7.1683 4.7647,8.7491 5.174,10.605 5.2817,11.078 5.4329,11.552 5.6277,12.025 4.812,14.164 4.7716,16.149 5.6429,17.257 L 6.0668,16.753 C 5.4917,15.706 5.4917,14.294 5.9904,12.797 6.3891,13.568 6.8977,14.324 7.5026,15.034 L 7.905,14.546 C 7.2322,13.744 6.6877,12.881 6.2974,12.01 6.8091,10.865 7.6026,9.6961 8.6512,8.6499 9.6768,7.6265 10.832,6.8246 12.008,6.2977 12.864,6.6872 13.729,7.2217 14.547,7.9091 L 15.03,7.5119 C 14.31,6.8934 13.553,6.3893 12.79,5.9998 13.042,5.9158 13.292,5.8471 13.543,5.786 14.803,5.5034 15.916,5.6027 16.758,6.0686 L 17.264,5.6409 C 16.574,5.2056 15.725,4.9917 14.77,5.007 Z M 9.0788,5.618 C 9.7486,5.6103 10.473,5.7402 11.217,5.9922 10.157,6.5344 9.1331,7.2905 8.2136,8.2146 7.2719,9.1539 6.525,10.185 5.9904,11.231 5.9041,10.979 5.8323,10.719 5.7743,10.467 5.4077,8.8332 5.6865,7.4509 6.5647,6.5726 7.1994,5.9387 8.0776,5.6332 9.0788,5.618 Z M 18.369,6.7482 17.944,7.2523 C 18.295,7.8938 18.434,8.7033 18.354,9.6121 18.536,9.9023 18.705,10.185 18.852,10.483 19.159,9.0164 18.992,7.7258 18.369,6.7482 Z M 11.987,8.0084 C 9.786,8.0084 8.0028,9.803 8.0028,12.025 8.0028,12.797 8.222,13.515 8.6076,14.133 L 8.8268,14.049 C 8.8642,13.82 8.9628,13.614 9.1216,13.454 9.1522,13.423 9.1896,13.392 9.227,13.37 9.0307,12.957 8.9108,12.499 8.9108,12.018 8.9108,10.299 10.293,8.9019 11.995,8.9019 12.478,8.9019 12.932,9.0164 13.34,9.2226 13.37,9.1845 13.394,9.1539 13.424,9.1234 13.583,8.963 13.779,8.8561 13.999,8.8255 L 14.083,8.6117 C 13.47,8.2298 12.758,8.0084 11.987,8.0084 Z M 16.502,8.9706 16.1,9.4594 C 16.787,10.277 17.327,11.14 17.711,11.995 L 17.696,12.033 C 17.168,13.202 16.363,14.362 15.36,15.355 13.888,16.821 12.151,17.845 10.467,18.211 9.2079,18.502 8.0944,18.395 7.2528,17.929 L 6.7488,18.356 C 7.4147,18.784 8.2953,19.006 9.2033,19.006 9.6722,19.006 10.095,18.937 10.608,18.822 12.409,18.418 14.254,17.348 15.799,15.79 16.712,14.882 17.473,13.851 18.022,12.781 18.647,14.637 18.498,16.379 17.44,17.432 16.642,18.227 15.388,18.532 13.937,18.295 13.667,18.463 13.39,18.616 13.112,18.761 13.727,18.922 14.313,19.006 14.869,19.006 16.085,19.006 17.132,18.624 17.879,17.883 19.813,15.943 19.16,12.102 16.502,8.9706 Z M 15.405,9.8794 15.186,9.9634 C 15.14,10.193 15.042,10.399 14.883,10.559 14.853,10.59 14.816,10.62 14.778,10.643 14.974,11.056 15.094,11.514 15.094,11.995 15.094,13.713 13.711,15.111 12.01,15.111 11.526,15.111 11.073,14.996 10.664,14.79 10.634,14.828 10.611,14.859 10.58,14.889 10.421,15.05 10.226,15.157 10.006,15.187 L 9.922,15.401 C 10.534,15.783 11.247,16.004 12.018,16.004 14.219,16.004 16.003,14.21 16.003,11.987 16.003,11.216 15.783,10.498 15.405,9.8794 Z M 12.002,10.009 A 1.9999,1.9999 0 0 0 10.002,12.01 1.9999,1.9999 0 0 0 12.002,14.003 1.9999,1.9999 0 0 0 14.002,12.01 1.9999,1.9999 0 0 0 12.002,10.009 Z M 9.8227,13.667 C 9.6929,13.667 9.5623,13.721 9.4553,13.82 9.3026,13.973 9.2637,14.194 9.34,14.378 L 8.3014,14.79 4.0025,19.914 4.0942,20.006 9.2117,15.699 9.6157,14.66 C 9.6768,14.683 9.7463,14.698 9.815,14.698 9.9449,14.698 10.073,14.645 10.172,14.546 10.371,14.347 10.371,14.019 10.172,13.82 10.081,13.721 9.9525,13.667 9.8227,13.667 Z M 9.4576,16.088 8.9734,16.485 C 9.3981,16.852 9.8456,17.188 10.307,17.486 10.483,17.425 10.848,17.28 11.003,17.18 10.431,16.852 9.9846,16.524 9.4576,16.088 Z"/>
</svg>
